src/svg/uf0fc-beer.svg

<!-- Generated by IcoMoon.io -->
<svg version="1.1" xmlns="http://www.w3.org/2000/svg" width="31" height="32" viewBox="0 0 31 32">
<path d="M11.429 16v-6.857h-4.571v4.571c0 1.268 1.018 2.286 2.286 2.286h2.286zM29.714 24v3.429h-20.571v-3.429l2.286-3.429h-2.286c-3.786 0-6.857-3.071-6.857-6.857v-5.714l-1.143-1.143 0.571-2.286h8.571l0.571-2.286h17.143l0.571 3.429-1.143 0.571v14.286z"></path>
</svg>

<svg xmlns="http://www.w3.org/2000/svg" width="31" height="32"><path d="M11.429 16V9.143H6.858v4.571A2.279 2.279 0 0 0 9.144 16h2.286zm18.285 8v3.429H9.143V24l2.286-3.429H9.143a6.858 6.858 0 0 1-6.857-6.857V8L1.143 6.857l.571-2.286h8.571l.571-2.286h17.143l.571 3.429-1.143.571v14.286z"/></svg>
